Numix-Light/16/status/indicator-keyboard-Ar-1.svg

<?xml version="1.0" encoding="UTF-8" standalone="no"?>
<svg
   xmlns:dc="http://purl.org/dc/elements/1.1/"
   xmlns:cc="http://creativecommons.org/ns#"
   xmlns:rdf="http://www.w3.org/1999/02/22-rdf-syntax-ns#"
   xmlns:svg="http://www.w3.org/2000/svg"
   xmlns="http://www.w3.org/2000/svg"
   xmlns:sodipodi="http://sodipodi.sourceforge.net/DTD/sodipodi-0.dtd"
   xmlns:inkscape="http://www.inkscape.org/namespaces/inkscape"
   viewBox="0 0 16 16"
   id="svg2"
   version="1.1"
   inkscape:version="0.91 r13725"
   sodipodi:docname="indicator-keyboard-Ar-1.svg">
  <metadata
     id="metadata14">
    <rdf:RDF>
      <cc:Work
         rdf:about="">
        <dc:format>image/svg+xml</dc:format>
        <dc:type
           rdf:resource="http://purl.org/dc/dcmitype/StillImage" />
      </cc:Work>
    </rdf:RDF>
  </metadata>
  <defs
     id="defs12" />
  <sodipodi:namedview
     pagecolor="#ffffff"
     bordercolor="#666666"
     borderopacity="1"
     objecttolerance="10"
     gridtolerance="10"
     guidetolerance="10"
     inkscape:pageopacity="0"
     inkscape:pageshadow="2"
     inkscape:window-width="640"
     inkscape:window-height="480"
     id="namedview10"
     showgrid="false"
     inkscape:zoom="14.75"
     inkscape:cx="8"
     inkscape:cy="8"
     inkscape:window-x="65"
     inkscape:window-y="24"
     inkscape:window-maximized="0"
     inkscape:current-layer="svg2" />
  <path
     style="fill:#353535;fill-opacity:1"
     d="M 1.5996094 0 C 0.71320937 2.9605947e-16 0 0.71320937 0 1.5996094 L 0 14.400391 C 2.9605947e-16 15.286791 0.71320937 16 1.5996094 16 L 14.400391 16 C 15.286791 16 16 15.286791 16 14.400391 L 16 1.5996094 C 16 0.71320937 15.286791 0 14.400391 0 L 1.5996094 0 z M 4.9707031 4.859375 L 5.5117188 4.859375 C 5.7337187 5.321375 5.942625 5.7821406 6.140625 6.2441406 C 6.338625 6.7061406 6.536375 7.1893594 6.734375 7.6933594 C 6.938375 8.1913594 7.1454688 8.7231094 7.3554688 9.2871094 C 7.5654688 9.8451096 7.7930625 10.447703 8.0390625 11.095703 L 7.3652344 11.095703 C 7.2512344 10.789703 7.1430156 10.496844 7.0410156 10.214844 C 6.9390156 9.9328436 6.8401406 9.6567187 6.7441406 9.3867188 L 3.7109375 9.3867188 C 3.6089375 9.6567187 3.5062969 9.9328436 3.4042969 10.214844 C 3.3022969 10.496844 3.1978438 10.789703 3.0898438 11.095703 L 2.4511719 11.095703 C 2.6911719 10.447703 2.915 9.8451096 3.125 9.2871094 C 3.335 8.7231094 3.5402813 8.1913594 3.7382812 7.6933594 C 3.9422812 7.1893594 4.1437969 6.7061406 4.3417969 6.2441406 C 4.5397969 5.7821406 4.7487031 5.321375 4.9707031 4.859375 z M 5.2226562 5.5605469 C 4.9946562 6.0765469 4.7726406 6.6027187 4.5566406 7.1367188 C 4.3466406 7.6707187 4.1283906 8.2452813 3.9003906 8.8632812 L 6.5546875 8.8632812 C 6.3266875 8.2452813 6.1046719 7.6707187 5.8886719 7.1367188 C 5.6726719 6.6027188 5.4506562 6.0765469 5.2226562 5.5605469 z M 10.484375 6.3535156 C 10.676375 6.3535156 10.857391 6.3684375 11.025391 6.3984375 C 11.199391 6.4284375 11.318766 6.4582812 11.384766 6.4882812 L 11.267578 6.9921875 C 11.219578 6.9681875 11.120703 6.9439219 10.970703 6.9199219 C 10.826703 6.8899219 10.634531 6.875 10.394531 6.875 C 10.142531 6.875 9.9392031 6.8936875 9.7832031 6.9296875 C 9.6332031 6.9656875 9.5343281 6.9955312 9.4863281 7.0195312 L 9.4863281 11.095703 L 8.9003906 11.095703 L 8.9003906 6.6582031 C 9.0503906 6.5922031 9.2574844 6.5269375 9.5214844 6.4609375 C 9.7854844 6.3889375 10.106375 6.3535156 10.484375 6.3535156 z M 13.279297 8.8417969 L 13.548828 8.8417969 L 13.548828 12.896484 L 13.167969 12.896484 L 13.167969 9.421875 C 13.125069 9.468675 13.0702 9.5157063 13 9.5664062 C 12.9337 9.6171063 12.857284 9.66805 12.771484 9.71875 C 12.685684 9.76555 12.595553 9.812575 12.501953 9.859375 C 12.408353 9.902275 12.314303 9.9375437 12.220703 9.9648438 L 12.109375 9.671875 C 12.343375 9.5899751 12.553028 9.4880813 12.736328 9.3632812 C 12.919628 9.2345813 13.099897 9.0601969 13.279297 8.8417969 z "
     id="path4" />
</svg>

<svg xmlns="http://www.w3.org/2000/svg" viewBox="0 0 16 16">
 <path d="m 1.6 0 c -0.886 0 -1.6 0.713 -1.6 1.6 l 0 12.801 c 0 0.886 0.713 1.6 1.6 1.6 l 12.801 0 c 0.886 0 1.6 -0.713 1.6 -1.6 l 0 -12.801 c 0 -0.886 -0.713 -1.6 -1.6 -1.6 l -12.801 0 z m 3.371 4.859 l 0.541 0 c 0.222 0.462 0.431 0.923 0.629 1.385 c 0.198 0.462 0.396 0.945 0.594 1.449 c 0.204 0.498 0.411 1.03 0.621 1.594 c 0.21 0.558 0.438 1.161 0.684 1.809 l -0.674 0 c -0.114 -0.306 -0.222 -0.599 -0.324 -0.881 c -0.102 -0.282 -0.201 -0.558 -0.297 -0.828 l -3.033 0 c -0.102 0.27 -0.205 0.546 -0.307 0.828 c -0.102 0.282 -0.206 0.575 -0.314 0.881 l -0.639 0 c 0.24 -0.648 0.464 -1.251 0.674 -1.809 c 0.21 -0.564 0.415 -1.096 0.613 -1.594 c 0.204 -0.504 0.406 -0.987 0.604 -1.449 c 0.198 -0.462 0.407 -0.923 0.629 -1.385 z m 0.252 0.701 c -0.228 0.516 -0.45 1.042 -0.666 1.576 c -0.21 0.534 -0.428 1.109 -0.656 1.727 l 2.654 0 c -0.228 -0.618 -0.45 -1.193 -0.666 -1.727 c -0.216 -0.534 -0.438 -1.06 -0.666 -1.576 z m 5.262 0.793 c 0.192 0 0.373 0.015 0.541 0.045 c 0.174 0.03 0.293 0.06 0.359 0.09 l -0.117 0.504 c -0.048 -0.024 -0.147 -0.048 -0.297 -0.072 c -0.144 -0.03 -0.336 -0.045 -0.576 -0.045 c -0.252 0 -0.455 0.019 -0.611 0.055 c -0.15 0.036 -0.249 0.066 -0.297 0.09 l 0 4.076 l -0.586 0 l 0 -4.437 c 0.15 -0.066 0.357 -0.131 0.621 -0.197 c 0.264 -0.072 0.585 -0.107 0.963 -0.107 z m 2.795 2.488 l 0.27 0 l 0 4.055 l -0.381 0 l 0 -3.475 c -0.043 0.047 -0.098 0.094 -0.168 0.145 c -0.066 0.051 -0.143 0.102 -0.229 0.152 c -0.086 0.047 -0.176 0.094 -0.27 0.141 c -0.094 0.043 -0.188 0.078 -0.281 0.105 l -0.111 -0.293 c 0.234 -0.082 0.444 -0.184 0.627 -0.309 c 0.183 -0.129 0.364 -0.303 0.543 -0.521 z" style="fill:#353535;fill-opacity:1"/>
</svg>
